optimized/20/solid/code-bracket-square.svg

<svg xmlns="http://www.w3.org/2000/svg" viewBox="0 0 20 20">
  <path fill-rule="evenodd" d="M4.25 2C3.00736 2 2 3.00736 2 4.25V15.75C2 16.9926 3.00736 18 4.25 18H15.75C16.9926 18 18 16.9926 18 15.75V4.25C18 3.00736 16.9926 2 15.75 2H4.25ZM8.28033 8.28033C8.57322 7.98744 8.57322 7.51256 8.28033 7.21967C7.98744 6.92678 7.51256 6.92678 7.21967 7.21967L4.96967 9.46967C4.67678 9.76256 4.67678 10.2374 4.96967 10.5303L7.21967 12.7803C7.51256 13.0732 7.98744 13.0732 8.28033 12.7803C8.57322 12.4874 8.57322 12.0126 8.28033 11.7197L6.56066 10L8.28033 8.28033ZM12.7803 7.21967C12.4874 6.92678 12.0126 6.92678 11.7197 7.21967C11.4268 7.51256 11.4268 7.98744 11.7197 8.28033L13.4393 10L11.7197 11.7197C11.4268 12.0126 11.4268 12.4874 11.7197 12.7803C12.0126 13.0732 12.4874 13.0732 12.7803 12.7803L15.0303 10.5303C15.3232 10.2374 15.3232 9.76256 15.0303 9.46967L12.7803 7.21967Z" clip-rule="evenodd"/>
</svg>

<svg xmlns="http://www.w3.org/2000/svg" viewBox="0 0 20 20" fill="currentColor" aria-hidden="true">
  <path fill-rule="evenodd" d="M4.25 2A2.25 2.25 0 002 4.25v11.5A2.25 2.25 0 004.25 18h11.5A2.25 2.25 0 0018 15.75V4.25A2.25 2.25 0 0015.75 2H4.25zm4.03 6.28a.75.75 0 00-1.06-1.06L4.97 9.47a.75.75 0 000 1.06l2.25 2.25a.75.75 0 001.06-1.06L6.56 10l1.72-1.72zm4.5-1.06a.75.75 0 10-1.06 1.06L13.44 10l-1.72 1.72a.75.75 0 101.06 1.06l2.25-2.25a.75.75 0 000-1.06l-2.25-2.25z" clip-rule="evenodd"/>
</svg>
